X: 46
T:Gavotte
M:C|
L:1/4
R:Gavotte
B:Thoinot Arbeau : Orchesographie, 1589
Z:Steve Mansfield March 2001
K:CMix
A>G F/G/A/B/ | c2 c2 | d/e/ f ed | c2 c2 ::
BA GA | F>G AF | BA Gc | F2 F2 :| 
<end>
<start>
